img/icons/mime/large/tiff.svg

<svg height="140.9" width="125.3" xmlns="http://www.w3.org/2000/svg" xmlns:xlink="http://www.w3.org/1999/xlink"><linearGradient id="a" gradientTransform="matrix(.939922 0 0 .896911 -12.081733 -3.352424)" gradientUnits="userSpaceOnUse" x1="24" x2="73" y1="16.4" y2="73.4"><stop offset="0" stop-color="#fff"/><stop offset="1" stop-color="#fff" stop-opacity="0"/></linearGradient><linearGradient id="b" gradientTransform="matrix(1.222575 0 0 .738788 -10.653167 -7.742593)" gradientUnits="userSpaceOnUse" x1="12.2" x2="107.8" y1="84" y2="84"><stop offset="0" stop-color="#46a046"/><stop offset=".4" stop-color="#df421e"/><stop offset=".7" stop-color="#ada7c8"/><stop offset="1" stop-color="#eed680"/></linearGradient><g stroke="#000"><rect fill="none" height="133.4" rx="22.9" stroke-linejoin="round" stroke-opacity=".5" stroke-width="7.5" width="117.8" x="3.8" y="3.8"/><rect fill="#df421e" height="133.4" rx="22.9" stroke-width="3.8" width="117.8" x="3.6" y="3.7"/><rect fill="url(#b)" height="67.2" rx="1.3" stroke-width="3.3" width="113.7" x="5.9" y="20.8"/></g><path d="m100.3 132.6h-75.7c-11.6 0-17.3-5.7-17.3-17.4 0 0 27.6-66.5 110.4-76.6v76.6c0 11.7-5.7 17.4-17.4 17.4z" fill="#fff" fill-opacity=".3"/><path d="m24.6 7.3h75.7c11.7 0 17.4 5.7 17.4 17.4 0 0-79.3.9-110.4 91.3v-91.3c0-10.3 7-17.4 17.3-17.4z" fill="url(#a)"/><path d="m109.6 101.2h-10c-1.6 0-2.8.1-3.7.5-.5.1-.9.3-1.2.5-.4.2-.7.4-1 .8-.9.8-1.6 1.8-2 2.9l-.2 1-.1 1.1v.8h18.2v5.1h-18.2v13h-6.7v-15.5c0-1.4 0-2.6.1-3.6s.2-1.9.4-2.7c.6-2.6 1.8-4.7 3.5-6.3 1.2-1 2.5-1.8 4.1-2.3s3.6-.7 6.1-.7h10.7zm-28.1 0h-10c-1.5 0-2.8.1-3.7.5-.5.1-.9.3-1.2.5-.4.2-.7.4-1 .8-.9.8-1.5 1.8-1.9 2.9l-.3 1-.1 1.1v.8h18.2v5.1h-18.2v13h-6.7v-15.5c0-1.4.1-2.6.1-3.6.1-1 .3-1.9.4-2.7.6-2.6 1.8-4.7 3.6-6.3 1.1-1 2.4-1.8 4-2.3s3.7-.7 6.1-.7h10.7zm-29.6 25.7h-6.7v-31.1h6.7zm-37-31.1h28v5.4h-10.7v25.7h-6.7v-25.7h-10.6z"/><path d="m108.9 100.5h-10c-1.5 0-2.8.2-3.7.5-.5.1-.9.3-1.2.5-.4.2-.7.4-1 .8-.9.8-1.5 1.8-1.9 2.9l-.3 1-.1 1.1v.8h18.2v5.1h-18.2v13h-6.7v-15.5c0-1.4.1-2.6.1-3.6.1-1 .3-1.9.4-2.7.6-2.6 1.8-4.6 3.6-6.3 1.1-1 2.4-1.8 4-2.3 1.6-.4 3.7-.7 6.1-.7h10.7zm-28.1 0h-10c-1.5 0-2.8.2-3.7.5-.5.1-.9.3-1.2.5s-.7.4-1 .8c-.9.8-1.5 1.8-1.9 2.9l-.3 1v1.1.8h18.1v5.1h-18.1v13h-6.8v-15.5c0-1.4.1-2.6.2-3.6 0-1 .2-1.9.4-2.7.5-2.6 1.7-4.6 3.5-6.3 1.1-1 2.5-1.8 4.1-2.3 1.6-.4 3.6-.7 6-.7h10.7zm-29.5 25.7h-6.8v-31.1h6.8zm-37.1-31.1h28v5.4h-10.7v25.7h-6.6v-25.7h-10.7z" fill="#fff"/></svg>

<svg xmlns:svg="http://www.w3.org/2000/svg" xmlns="http://www.w3.org/2000/svg" xmlns:xlink="http://www.w3.org/1999/xlink" id="svg1" width="125.3" height="140.9" version="1">
<style>
.s0{
  stop-color:#46a046;
  stop-opacity:1;
}
.s1{
  stop-color:#df421e;
  stop-opacity:1;
}
.s2{
  stop-color:#ada7c8;
  stop-opacity:1;
}
.s3{
  stop-color:#eed680;
  stop-opacity:1;
}
.s4{
  stop-color:#00ff00;
  stop-opacity:1;
}
.s5{
  stop-color:#ff0000;
  stop-opacity:1;
}
.s6{
  stop-color:#7f8cff;
  stop-opacity:1;
}
.s7{
  stop-color:#ffff00;
  stop-opacity:1;
}

</style>  <metadata id="metadata15"/>
  <defs id="defs3">
    <linearGradient id="linearGradient3587">
      <stop id="stop3589" offset="0" style="stop-color:#efe0cd;stop-opacity:0.6"/>
      <stop id="stop3591" offset="1" style="stop-color:#cececd;stop-opacity:0.2"/>
    </linearGradient>
    <linearGradient id="linearGradient2832">
      <stop offset="0" id="stop2834" style="stop-color:#ffffff;stop-opacity:1"/>
      <stop offset="1" id="stop2836" style="stop-color:#ffffff;stop-opacity:0"/>
    </linearGradient>
    <linearGradient id="linearGradient839">
      <stop offset="0" id="stop840" class="s0"/>
      <stop offset="0.4" id="stop841" class="s1"/>
      <stop offset="0.7" id="stop842" class="s2"/>
      <stop offset="1" id="stop843" class="s3"/>
    </linearGradient>
    <linearGradient gradientUnits="userSpaceOnUse" gradientTransform="scale(1.353569,0.738788)" xlink:href="#linearGradient839" id="linearGradient836" x1="12.2" y1="84" x2="107.8" y2="84"/>
    <linearGradient xlink:href="#linearGradient2832" id="linearGradient2830" gradientTransform="matrix(0.939922,0,0,0.896911,-12.081733,-3.3524237)" x1="24" y1="16.4" x2="73" y2="73.4" gradientUnits="userSpaceOnUse"/>
    <linearGradient y2="93.7" x2="107.3" y1="124.3" x1="111.3" gradientTransform="matrix(0.777129,0,0,0.894628,-162.4688,12.76856)" gradientUnits="userSpaceOnUse" id="linearGradient1407" xlink:href="#linearGradient1700"/>
    <linearGradient y2="93.7" x2="107.3" y1="124.3" x1="111.3" gradientTransform="matrix(0.777129,0,0,0.894628,-2.922179,10.43077)" gradientUnits="userSpaceOnUse" id="linearGradient1390" xlink:href="#linearGradient1700"/>
    <linearGradient id="linearGradient1350">
      <stop offset="0" id="stop1352" class="s0"/>
      <stop offset="0.4" id="stop1354" class="s1"/>
      <stop offset="0.7" id="stop1356" class="s2"/>
      <stop offset="1" id="stop1358" class="s3"/>
    </linearGradient>
    <linearGradient xlink:href="#linearGradient839" id="linearGradient1360" x1="0" y1="0.5" x2="1" y2="0.5"/>
    <linearGradient xlink:href="#linearGradient1700" id="linearGradient1362" gradientTransform="matrix(0.870364,0,0,1.001961,4.612015,4.886798)" x1="123.5" y1="121.7" x2="128.7" y2="88" gradientUnits="userSpaceOnUse"/>
    <linearGradient xlink:href="#linearGradient839" id="linearGradient1363" x1="0" y1="0.5" x2="1" y2="0.5"/>
    <linearGradient id="linearGradient1353">
      <stop offset="0" id="stop1355" class="s0"/>
      <stop offset="0.4" id="stop1357" class="s1"/>
      <stop offset="0.7" id="stop1359" class="s2"/>
      <stop offset="1" id="stop1361" class="s3"/>
    </linearGradient>
    <linearGradient id="linearGradient1700">
      <stop offset="0" id="stop1701" style="stop-color:#000000;stop-opacity:0.7"/>
      <stop offset="1" id="stop1702" style="stop-color:#000000;stop-opacity:0"/>
    </linearGradient>
    <linearGradient y2="0.5" x2="1" y1="0.5" x1="0" id="linearGradient1427" xlink:href="#linearGradient839"/>
    <linearGradient id="linearGradient1417">
      <stop id="stop1419" offset="0" class="s0"/>
      <stop id="stop1421" offset="0.4" class="s1"/>
      <stop id="stop1423" offset="0.7" class="s2"/>
      <stop id="stop1425" offset="1" class="s3"/>
    </linearGradient>
    <linearGradient xlink:href="#linearGradient839" id="linearGradient1381" x1="0" y1="0.5" x2="1" y2="0.5"/>
    <linearGradient id="linearGradient1371">
      <stop offset="0" id="stop1373" class="s0"/>
      <stop offset="0.4" id="stop1375" class="s1"/>
      <stop offset="0.7" id="stop1377" class="s2"/>
      <stop offset="1" id="stop1379" class="s3"/>
    </linearGradient>
    <linearGradient y2="0.5" x2="1" y1="0.5" x1="0" id="linearGradient1374" xlink:href="#linearGradient839"/>
    <linearGradient id="linearGradient1364">
      <stop id="stop1366" offset="0" class="s0"/>
      <stop id="stop1368" offset="0.4" class="s1"/>
      <stop id="stop1370" offset="0.7" class="s2"/>
      <stop id="stop1372" offset="1" class="s3"/>
    </linearGradient>
    <linearGradient y2="0.5" x2="1" y1="0.5" x1="0" id="linearGradient1389" xlink:href="#linearGradient839"/>
    <linearGradient id="linearGradient833">
      <stop id="stop834" offset="0" class="s4"/>
      <stop id="stop837" offset="0.3" class="s5"/>
      <stop id="stop838" offset="0.8" class="s6"/>
      <stop id="stop835" offset="1" class="s7"/>
    </linearGradient>
    <linearGradient id="linearGradient1373">
      <stop id="stop1376" offset="0" class="s0"/>
      <stop id="stop1378" offset="0.4" class="s1"/>
      <stop id="stop1380" offset="0.7" class="s2"/>
      <stop id="stop1382" offset="1" class="s3"/>
    </linearGradient>
    <linearGradient y2="84" x2="107.8" y1="84" x1="12.2" gradientTransform="matrix(1.222575,0,0,0.738788,-10.653167,-7.7425927)" gradientUnits="userSpaceOnUse" id="linearGradient1401" xlink:href="#linearGradient839"/>
    <linearGradient y2="0.5" x2="1" y1="0.5" x1="0" id="linearGradient2974" xlink:href="#linearGradient839"/>
    <linearGradient id="linearGradient2964">
      <stop id="stop2966" offset="0" class="s4"/>
      <stop id="stop2968" offset="0.3" class="s5"/>
      <stop id="stop2970" offset="0.8" class="s6"/>
      <stop id="stop2972" offset="1" class="s7"/>
    </linearGradient>
    <linearGradient id="linearGradient2954">
      <stop id="stop2956" offset="0" class="s0"/>
      <stop id="stop2958" offset="0.4" class="s1"/>
      <stop id="stop2960" offset="0.7" class="s2"/>
      <stop id="stop2962" offset="1" class="s3"/>
    </linearGradient>
    <linearGradient y2="84" x2="107.8" y1="84" x1="12.2" gradientTransform="matrix(1.353569,0,0,0.738788,-182.1667,-25.6819)" gradientUnits="userSpaceOnUse" id="linearGradient2987" xlink:href="#linearGradient839"/>
    <linearGradient xlink:href="#linearGradient839" id="linearGradient1418" x1="0" y1="0.5" x2="1" y2="0.5"/>
    <linearGradient id="linearGradient1408">
      <stop offset="0" id="stop1410" class="s4"/>
      <stop offset="0.3" id="stop1412" class="s5"/>
      <stop offset="0.8" id="stop1414" class="s6"/>
      <stop offset="1" id="stop1416" class="s7"/>
    </linearGradient>
    <linearGradient id="linearGradient1397">
      <stop offset="0" id="stop1399" class="s0"/>
      <stop offset="0.4" id="stop1401" class="s1"/>
      <stop offset="0.7" id="stop1403" class="s2"/>
      <stop offset="1" id="stop1405" class="s3"/>
    </linearGradient>
    <linearGradient xlink:href="#linearGradient839" id="linearGradient1431" gradientUnits="userSpaceOnUse" gradientTransform="matrix(1.353569,0,0,0.738788,-194.7091,-13.83491)" x1="12.2" y1="84" x2="107.8" y2="84"/>
    <linearGradient y2="0.5" x2="1" y1="0.5" x1="0" id="linearGradient1430" xlink:href="#linearGradient839"/>
    <linearGradient id="linearGradient1419">
      <stop id="stop1422" offset="0" class="s4"/>
      <stop id="stop1424" offset="0.3" class="s5"/>
      <stop id="stop1426" offset="0.8" class="s6"/>
      <stop id="stop1428" offset="1" class="s7"/>
    </linearGradient>
    <linearGradient id="linearGradient1409">
      <stop id="stop1411" offset="0" class="s0"/>
      <stop id="stop1413" offset="0.4" class="s1"/>
      <stop id="stop1415" offset="0.7" class="s2"/>
      <stop id="stop1417" offset="1" class="s3"/>
    </linearGradient>
    <linearGradient y2="0.5" x2="1" y1="0.5" x1="0" id="linearGradient2256" xlink:href="#linearGradient839"/>
    <linearGradient id="linearGradient2246">
      <stop id="stop2248" offset="0" class="s4"/>
      <stop id="stop2250" offset="0.3" class="s5"/>
      <stop id="stop2252" offset="0.8" class="s6"/>
      <stop id="stop2254" offset="1" class="s7"/>
    </linearGradient>
    <linearGradient id="linearGradient2236">
      <stop id="stop2238" offset="0" class="s0"/>
      <stop id="stop2240" offset="0.4" class="s1"/>
      <stop id="stop2242" offset="0.7" class="s2"/>
      <stop id="stop2244" offset="1" class="s3"/>
    </linearGradient>
    <linearGradient y2="84" x2="107.8" y1="84" x1="12.2" gradientTransform="matrix(1.353569,0,0,0.738788,-202.1667,-3.665422)" gradientUnits="userSpaceOnUse" id="linearGradient2269" xlink:href="#linearGradient839"/>
    <linearGradient xlink:href="#linearGradient839" id="linearGradient1452" x1="0" y1="0.5" x2="1" y2="0.5"/>
    <linearGradient id="linearGradient1442">
      <stop offset="0" id="stop1444" class="s4"/>
      <stop offset="0.3" id="stop1446" class="s5"/>
      <stop offset="0.8" id="stop1448" class="s6"/>
      <stop offset="1" id="stop1450" class="s7"/>
    </linearGradient>
    <linearGradient id="linearGradient1432">
      <stop offset="0" id="stop1434" class="s0"/>
      <stop offset="0.4" id="stop1436" class="s1"/>
      <stop offset="0.7" id="stop1438" class="s2"/>
      <stop offset="1" id="stop1440" class="s3"/>
    </linearGradient>
    <linearGradient xlink:href="#linearGradient839" id="linearGradient2281" x1="0" y1="0.5" x2="1" y2="0.5"/>
    <linearGradient id="linearGradient2271">
      <stop offset="0" id="stop2273" class="s4"/>
      <stop offset="0.3" id="stop2275" class="s5"/>
      <stop offset="0.8" id="stop2277" class="s6"/>
      <stop offset="1" id="stop2279" class="s7"/>
    </linearGradient>
    <linearGradient id="linearGradient2261">
      <stop offset="0" id="stop2263" class="s0"/>
      <stop offset="0.4" id="stop2265" class="s1"/>
      <stop offset="0.7" id="stop2267" class="s2"/>
      <stop offset="1" id="stop2269" class="s3"/>
    </linearGradient>
    <linearGradient xlink:href="#linearGradient839" id="linearGradient2294" gradientUnits="userSpaceOnUse" gradientTransform="matrix(1.353569,0,0,0.738788,-163.5227,-7.733217)" x1="12.2" y1="84" x2="107.8" y2="84"/>
  </defs>
  <rect id="rect834" width="117.8" height="133.4" x="3.8" y="3.8" ry="22.9" rx="22.9" style="fill:none;stroke-linejoin:round;stroke-opacity:0.5;stroke-width:7.5;stroke:#000"/>
  <rect id="rect828" width="117.8" height="133.4" x="3.6" y="3.7" ry="22.9" rx="22.9" style="fill:#df421e;stroke-width:3.8;stroke:#000"/>
  <rect rx="1.3" y="20.8" x="5.9" ry="1.3" height="67.2" width="113.7" id="rect832" style="fill:url(#linearGradient1401);stroke-width:3.3;stroke:#000"/>
  <path d="M100.3 132.6L24.6 132.6C13 132.6 7.3 126.9 7.3 115.2 7.3 115.2 34.9 48.7 117.7 38.6L117.7 115.2C117.7 126.9 112 132.6 100.3 132.6z" id="path2838" style="fill-opacity:0.3;fill:#fff"/>
  <path d="M24.6 7.3L100.3 7.3C112 7.3 117.7 13 117.7 24.7 117.7 24.7 38.4 25.6 7.3 116L7.3 24.7C7.3 14.4 14.3 7.3 24.6 7.3z" id="rect2063" fill="url(#linearGradient2830)"/>
  <path d="M109.6 101.2L99.6 101.2C98 101.2 96.8 101.3 95.9 101.7 95.4 101.8 95 102 94.7 102.2 94.3 102.4 94 102.6 93.7 103 92.8 103.8 92.1 104.8 91.7 105.9L91.5 106.9 91.4 108 91.4 108.8 109.6 108.8 109.6 113.9 91.4 113.9 91.4 126.9 84.7 126.9 84.7 111.4C84.7 110 84.7 108.8 84.8 107.8 84.9 106.8 85 105.9 85.2 105.1 85.8 102.5 87 100.4 88.7 98.8 89.9 97.8 91.2 97 92.8 96.5 94.4 96 96.4 95.8 98.9 95.8L109.6 95.8 109.6 101.2zM81.5 101.2L71.5 101.2C70 101.2 68.7 101.3 67.8 101.7 67.3 101.8 66.9 102 66.6 102.2 66.2 102.4 65.9 102.6 65.6 103 64.7 103.8 64.1 104.8 63.7 105.9L63.4 106.9 63.3 108 63.3 108.8 81.5 108.8 81.5 113.9 63.3 113.9 63.3 126.9 56.6 126.9 56.6 111.4C56.6 110 56.7 108.8 56.7 107.8 56.8 106.8 57 105.9 57.1 105.1 57.7 102.5 58.9 100.4 60.7 98.8 61.8 97.8 63.1 97 64.7 96.5 66.3 96 68.4 95.8 70.8 95.8L81.5 95.8 81.5 101.2zM51.9 126.9L45.2 126.9 45.2 95.8 51.9 95.8 51.9 126.9zM14.9 95.8L42.9 95.8 42.9 101.2 32.2 101.2 32.2 126.9 25.5 126.9 25.5 101.2 14.9 101.2 14.9 95.8z" id="path865" style="font-family:Trek;font-size:40;stroke-width:1"/>
  <path d="M108.9 100.5L98.9 100.5C97.4 100.5 96.1 100.7 95.2 101 94.7 101.1 94.3 101.3 94 101.5 93.6 101.7 93.3 101.9 93 102.3 92.1 103.1 91.5 104.1 91.1 105.2L90.8 106.2 90.7 107.3 90.7 108.1 108.9 108.1 108.9 113.2 90.7 113.2 90.7 126.2 84 126.2 84 110.7C84 109.3 84.1 108.1 84.1 107.1 84.2 106.1 84.4 105.2 84.5 104.4 85.1 101.8 86.3 99.8 88.1 98.1 89.2 97.1 90.5 96.3 92.1 95.8 93.7 95.4 95.8 95.1 98.2 95.1L108.9 95.1 108.9 100.5zM80.8 100.5L70.8 100.5C69.3 100.5 68 100.7 67.1 101 66.6 101.1 66.2 101.3 65.9 101.5 65.6 101.7 65.2 101.9 64.9 102.3 64 103.1 63.4 104.1 63 105.2L62.7 106.2 62.7 107.3 62.7 108.1 80.8 108.1 80.8 113.2 62.7 113.2 62.7 126.2 55.9 126.2 55.9 110.7C55.9 109.3 56 108.1 56.1 107.1 56.1 106.1 56.3 105.2 56.5 104.4 57 101.8 58.2 99.8 60 98.1 61.1 97.1 62.5 96.3 64.1 95.8 65.7 95.4 67.7 95.1 70.1 95.1L80.8 95.1 80.8 100.5zM51.3 126.2L44.5 126.2 44.5 95.1 51.3 95.1 51.3 126.2zM14.2 95.1L42.2 95.1 42.2 100.5 31.5 100.5 31.5 126.2 24.9 126.2 24.9 100.5 14.2 100.5 14.2 95.1z" id="path2298" style="fill:#fff;font-family:Trek;font-size:40;stroke-width:1"/>
</svg>
